X: 1
T: den gamle trekant
R: jig
Z: 2006 John Chambers <jc@trillian.mit.edu>
M: 6/8
L: 1/8
K: G
D \
| "G"G2B d2g | B3 Bed | "D7"A3 AcB | "G"G3 G2D \
| "G"G2B d2g | "C"e3 edc | "G"B2D "D7"A2D | "G"G3 G2 :|
|: D \
| "G"B>AB "Am"c2B | A3 E2G | "D7"F2D B2A | "G"G3 "D7"D2c \
| "G"B2G "D7"A2B | "C"c2e e3 | "D7"d2D B2A | "G"G3 G2 :|
|: d/d/ \
| "G"d2c/c/ "C"c2A/A/ | "D7"A3 F2e/e/ | "C"e2d/d/ "G"d2B/B/ | B3 G2D \
| "G"GFG BAB | "C"c2e e3 | "D7"d2D B2A | "G"G3 G2 :|
